X: 30926
T: Over The Moor To Maggie
R: reel
M: 4/4
K: Gmajor
|:BA|~G3A BABd|effe dBAG|EAAG ABAG|EAAG ABc BA|
~G3A BABd|effe dBAG|E~G3 BGAG|EDEF G2:|
|:ga|b~g3 a~3f|gage d2Bd|eaag abag|eaag a2ga|
b~g3 a~3f|gage d2Bd|e~g3 bgag|edef g2:|
|:Bd|e3c d2dB|c3A B2AG|EAAG ABAG|EAAG ABcd|
edce d2Bd|c2Ac B2AG|E~G3 BGAG|EDEF G2:|

